!!!OTL: Caomeng nong jigong
!!!ARE: Asia, China,ÿTaiwan
!! IV, 632
!!!SCT: C1702
!!!YEM: Copyright 1995, estate of Helmut Schaffrath.
**kern
*ICvox
*Ivox
*M4/4
*k[f#c#]
*D:
{4b
4f#
8b
8dd
8b
8a
=1
4f#
8b
8a
2f#}
=2
{4b
4f#
8b
8dd
8b
8a
=3
8f#
8e
8f#
8a
2b}
=4
{4b
4dd
8b
8dd
8b
8a
=5
4f#
8b
8a
2f#}
=6
{4b
4f#
8b
8dd
8b
8a
=7
8f#
8e
8f#
8a
8b}
{8dd
8b
8a
=8
4f#
4b
8f#
8a
8f#
8e
=9
4d
8e
8d
2B}
=10
{8f#
16f#
16e
8d
8e
4.f#
8a
=11
8e
8f#
8e
8d
2B}
==
!!!AGN: Xiaodiao, Erge, Gezai xi
!!!AMT: simple quadruple
!!!AIN: vox
!!!EED: Helmut Schaffrath
!!!EEV: 1.0
*-
